X: 27322
T: Mist Covered Mountain, The
R: jig
M: 6/8
K: Adorian
|:G|EAA ABd|edB AGE|G3 GAB|dBA GED|
EAA ABd|edB ABd|efe dBA|BAG A2:|
|:e|age a2 b|age edB|AGE G2 A|BAB AGE|
[1 age a2 b|age edB|AGE G2 A|BAG A2:|
[2 D2 E G2 A|BAG ABd|efe dBG|BAG A2||

